assets/svgs/clients/draft.svg

<svg viewBox="0 0 100 19" xmlns="http://www.w3.org/2000/svg" xmlns:xlink="http://www.w3.org/1999/xlink"><mask id="a" fill="#fff"><path d="m0 .0179332h17.7651717v18.8150929h-17.7651717z" fill="#fff" fill-rule="evenodd"/></mask><mask id="b" fill="#fff"><path d="m.01744018.0179332h18.86793842v18.8150536h-18.86793842z" fill="#fff" fill-rule="evenodd"/></mask><mask id="c" fill="#fff"><path d="m.04539474.0179332h16.56814696v18.8150929h-16.56814696z" fill="#fff" fill-rule="evenodd"/></mask><mask id="d" fill="#fff"><path d="m.02567794.0179332h18.86321096v18.8150929h-18.86321096z" fill="#fff" fill-rule="evenodd"/></mask><mask id="e" fill="#fff"><path d="m.03531293.0179332h22.14640197v18.8151042h-22.14640197z" fill="#fff" fill-rule="evenodd"/></mask><g fill="#8e9ba0" fill-rule="evenodd"><path d="m11.4545455 9.42545999c0-2.49024141-1.48482159-4.09506614-3.92425594-4.09506614h-1.53788552v8.24544975h1.53788552c2.43943435-.0553175 3.92425594-1.6048248 3.92425594-4.15038361m6.3106262 0c0 5.86589951-3.8712458 9.40756611-10.18181816 9.40756611h-7.58335354v-18.81513225h7.63636364c6.25756226 0 10.12880806 3.59704034 10.12880806 9.40756614" mask="url(#a)"/><path d="m9.01261881 9.03808598c1.26154379 0 2.02941329-.71940807 2.02941329-1.82615079 0-1.10679895-.8227532-1.82620702-2.02941329-1.82620702h-2.57791543v3.65235781zm9.87275979 9.79490082h-7.8981744l-1.26154376-3.486293c-.27425107-.7747255-.60333006-1.3834987-1.31637168-1.3834987h-1.97458538v4.8697917h-6.4172632v-18.81507609h9.81793183c4.60727299 0 7.67880699 2.65625 7.67880699 6.58525133.0417338 2.00941799-.9555327 3.89605816-2.6327434 4.98048276.6295182.7092891 1.1474861 1.5117858 1.5357948 2.3795503z" mask="url(#b)" transform="translate(20)"/><path d="m6.35964912 5.44108499v3.26496693h7.93327848v5.09117398h-7.93327848v5.0358002h-6.31425438v-18.81513225h16.56814696v5.42319114z" mask="url(#c)" transform="translate(62.222222)"/><path d="m18.8888889 5.44108499h-6.3057134v13.39194111h-6.30571334v-13.39194111h-6.25178422v-5.42319114h18.86321096z" mask="url(#d)" transform="translate(81.111111)"/><path d="m12.7369396 11.9710301-1.8455473-.9961078-1.84554725.9961078.32572374-2.10285054-1.46556383-1.49413359 2.0626413-.27669974.92274604-2.21354167.9228012 2.21354167 2.0626413.27669974-1.4655638 1.49413359zm2.2797905-11.95312501h-7.81637719l-7.16503998 18.81513231h6.45938792l.92274608-2.7669412h6.89363107l.9227461 2.7669412h6.9478908z" mask="url(#e)" transform="translate(38.888889)"/></g></svg>

<?xml version="1.0" encoding="UTF-8"?>
<svg width="100px" height="19px" viewBox="0 0 100 19" version="1.1" xmlns="http://www.w3.org/2000/svg" xmlns:xlink="http://www.w3.org/1999/xlink">
    <!-- Generator: Sketch 53 (72520) - https://sketchapp.com -->
    <title>Group 35</title>
    <desc>Created with Sketch.</desc>
    <defs>
        <polygon id="path-1" points="0 0.0179332011 17.7651717 0.0179332011 17.7651717 18.8330261 0 18.8330261"></polygon>
        <polygon id="path-3" points="0.0174401835 0.0179332011 18.8853786 0.0179332011 18.8853786 18.8329868 0.0174401835 18.8329868"></polygon>
        <polygon id="path-5" points="0.0453947368 0.0179332011 16.6135417 0.0179332011 16.6135417 18.8330261 0.0453947368 18.8330261"></polygon>
        <polygon id="path-7" points="0.0256779388 0.0179332011 18.8888889 0.0179332011 18.8888889 18.8330261 0.0256779388 18.8330261"></polygon>
        <polygon id="path-9" points="0.0353129308 0.0179332011 22.1817149 0.0179332011 22.1817149 18.8330374 0.0353129308 18.8330374"></polygon>
    </defs>
    <g id="Page-1" stroke="none" stroke-width="1" fill="none" fill-rule="evenodd">
        <g id="Web_Splash_NBA_2019_Minimal" transform="translate(-120.000000, -21.000000)">
            <g id="Top_Navigation">
                <g id="Group-35" transform="translate(120.000000, 21.000000)">
                    <g id="Group-3">
                        <mask id="mask-2" fill="white">
                            <use xlink:href="#path-1"></use>
                        </mask>
                        <g id="Clip-2"></g>
                        <path d="M11.4545455,9.42545999 C11.4545455,6.93521858 9.96972391,5.33039385 7.53028956,5.33039385 L5.99240404,5.33039385 L5.99240404,13.5758436 L7.53028956,13.5758436 C9.96972391,13.5205261 11.4545455,11.9710188 11.4545455,9.42545999 M17.7651717,9.42545999 C17.7651717,15.2913595 13.8939259,18.8330261 7.58335354,18.8330261 L0,18.8330261 L0,0.0178938492 L7.63636364,0.0178938492 C13.8939259,0.0178938492 17.7651717,3.61493419 17.7651717,9.42545999" id="Fill-1" fill="#8e9ba0" mask="url(#mask-2)"></path>
                    </g>
                    <g id="Group-6" transform="translate(20.000000, 0.000000)">
                        <mask id="mask-4" fill="white">
                            <use xlink:href="#path-3"></use>
                        </mask>
                        <g id="Clip-5"></g>
                        <path d="M9.01261881,9.03808598 C10.2741626,9.03808598 11.0420321,8.31867791 11.0420321,7.21193519 C11.0420321,6.10513624 10.2192789,5.38572817 9.01261881,5.38572817 L6.43470338,5.38572817 L6.43470338,9.03808598 L9.01261881,9.03808598 Z M18.8853786,18.8329868 L10.9872042,18.8329868 L9.72566044,15.3466938 C9.45140937,14.5719683 9.12233038,13.9631951 8.40928876,13.9631951 L6.43470338,13.9631951 L6.43470338,18.8329868 L0.0174401835,18.8329868 L0.0174401835,0.0179107143 L9.83537201,0.0179107143 C14.442645,0.0179107143 17.514179,2.67416071 17.514179,6.60316204 C17.5559128,8.61258003 16.5586463,10.4992202 14.8814356,11.5836448 C15.5109538,12.2929339 16.0289217,13.0954306 16.4172304,13.9631951 L18.8853786,18.8329868 Z" id="Fill-4" fill="#8e9ba0" mask="url(#mask-4)"></path>
                    </g>
                    <g id="Group-9" transform="translate(62.222222, 0.000000)">
                        <mask id="mask-6" fill="white">
                            <use xlink:href="#path-5"></use>
                        </mask>
                        <g id="Clip-8"></g>
                        <polygon id="Fill-7" fill="#8e9ba0" mask="url(#mask-6)" points="6.35964912 5.44108499 6.35964912 8.70605192 14.2929276 8.70605192 14.2929276 13.7972259 6.35964912 13.7972259 6.35964912 18.8330261 0.0453947368 18.8330261 0.0453947368 0.0178938492 16.6135417 0.0178938492 16.6135417 5.44108499"></polygon>
                    </g>
                    <g id="Group-12" transform="translate(81.111111, 0.000000)">
                        <mask id="mask-8" fill="white">
                            <use xlink:href="#path-7"></use>
                        </mask>
                        <g id="Clip-11"></g>
                        <polygon id="Fill-10" fill="#8e9ba0" mask="url(#mask-8)" points="18.8888889 5.44108499 12.5831755 5.44108499 12.5831755 18.8330261 6.27746216 18.8330261 6.27746216 5.44108499 0.0256779388 5.44108499 0.0256779388 0.0178938492 18.8888889 0.0178938492"></polygon>
                    </g>
                    <g id="Group-15" transform="translate(38.888889, 0.000000)">
                        <mask id="mask-10" fill="white">
                            <use xlink:href="#path-9"></use>
                        </mask>
                        <g id="Clip-14"></g>
                        <path d="M12.7369396,11.9710301 L10.8913923,10.9749223 L9.04584505,11.9710301 L9.37156879,9.86817956 L7.90600496,8.37404597 L9.96864626,8.09734623 L10.8913923,5.88380456 L11.8141935,8.09734623 L13.8768348,8.37404597 L12.411271,9.86817956 L12.7369396,11.9710301 Z M15.0167301,0.0179050926 L7.20035291,0.0179050926 L0.0353129308,18.8330374 L6.49470085,18.8330374 L7.41744693,16.0660962 L14.311078,16.0660962 L15.2338241,18.8330374 L22.1817149,18.8330374 L15.0167301,0.0179050926 Z" id="Fill-13" fill="#8e9ba0" mask="url(#mask-10)"></path>
                    </g>
                </g>
            </g>
        </g>
    </g>
</svg>
